icon-themes/breeze_svg/cmd/32/notesmode.svg

<svg viewBox="0 0 32 32" xmlns="http://www.w3.org/2000/svg"><path d="m6 4v24h9v-1h-8v-22h18v10h1v-11zm2 2v9h16v-9zm1 1h14v7h-14zm15.398438 9-5.111329 5.109375-3.287109 3.289063v3.601562h3.601562l8.398438-8.398438zm-16.398438 1v1h12v-1zm0 2v1h8v-1zm14.349609.490234 2.160157 2.160157-3.173828 3.175781v-.675781l-1.013672.023437h-1.03711v-1.037109l.001953-.583985 1.439453-1.441406zm-14.349609 2.509766v1h7v-1zm10.273438 1.564453v1.621094h2.027343l.021485.654297-1.080078 1.080078h-1.441407l-.720703-.720703v-1.441407zm-10.273438.435547v1h4v-1zm6 0v1h1v-1z" fill="#4d4d4d"/></svg>

<svg xmlns="http://www.w3.org/2000/svg" viewBox="0 0 32 32">
 <path 
     style="fill:#4d4d4d" 
     d="M 6 4 L 6 28 L 15 28 L 15 27 L 7 27 L 7 5 L 25 5 L 25 15 L 26 15 L 26 4 L 6 4 z M 8 6 L 8 15 L 24 15 L 24 6 L 8 6 z M 9 7 L 23 7 L 23 14 L 9 14 L 9 7 z M 24.398438 16 L 19.287109 21.109375 L 16 24.398438 L 16 28 L 19.601562 28 L 28 19.601562 L 24.398438 16 z M 8 17 L 8 18 L 20 18 L 20 17 L 8 17 z M 8 19 L 8 20 L 16 20 L 16 19 L 8 19 z M 22.349609 19.490234 L 24.509766 21.650391 L 21.335938 24.826172 L 21.335938 24.150391 L 20.322266 24.173828 L 19.285156 24.173828 L 19.285156 23.136719 L 19.287109 22.552734 L 20.726562 21.111328 L 22.349609 19.490234 z M 8 22 L 8 23 L 15 23 L 15 22 L 8 22 z M 18.273438 23.564453 L 18.273438 25.185547 L 20.300781 25.185547 L 20.322266 25.839844 L 19.242188 26.919922 L 17.800781 26.919922 L 17.080078 26.199219 L 17.080078 24.757812 L 18.273438 23.564453 z M 8 24 L 8 25 L 12 25 L 12 24 L 8 24 z M 14 24 L 14 25 L 15 25 L 15 24 L 14 24 z "
     />
</svg>
